X: 3442
T: Betsy Baker
R: reel
M: 4/4
K: Gmajor
|:ge|dBBG FAAc|BGBd g2ge|dBBG FAAc|BGdB G2:|
Gd|efge fadd|efga f2dd|efgf gfga|gfed efge|
dBBG FAAc|BGBd g2ge|dBBG FAAc|BGdB G2||

